X:51
T:Different intervals in the ostinato
M:3/2
L:1/2
Q:1/2=100
K:Cmin
%%MIDI program 1 73 % Flute
%%MIDI program 2 68 % Oboe
V:Flute %%name="Flute" snm="Fl"
C3|E3|z3|C3|F3|z3|C3|G3|z3|C3|=E3|z3|C3|E3|
%%s:"<Flute"
V:Oboe %%name="Oboe" snm="Ob"
z2 c|c2 (B/2c/2)|e2 (f/2e/2)|c2 g|b2 (g/2f/2)|e2 f|g2 g|b2 (g/2f/2)|g2 (f/2e/2)|c2 (B/2G/2)|B2 B|c2 (B/2c/2)|e2 (f/2e/2)|c3||
%%s:"<Oboe"

